Yaru++/actions/16/layer-visible-off.svg

<svg viewBox="0 0 16 16" xmlns="http://www.w3.org/2000/svg">
  <path d="m13.320312 2-11.3144526 11.294922.7148437.705078 11.2851559-11.3027344zm-9.3144526 1-3 2h8.0195312l2.0000004-2zm0 4-3 2h4.0195312l2-2zm7.0195316 0-2.0000004 2h2.9824214l3-2zm-4.0449222 4-2 2h7.0195312l3-2z" fill="#808080"/>
</svg>

<svg xmlns="http://www.w3.org/2000/svg" viewBox="0 0 16 16">
 <defs>
  <style id="current-color-scheme" type="text/css">
   .ColorScheme-Text { color:#808080; }
  </style>
 </defs>
 <path fill="#808080" class="ColorScheme-Text" d="M 13.320312 2 L 2.0058594 13.294922 L 2.7207031 14 L 14.005859 2.6972656 L 13.320312 2 z M 4.0058594 3 L 1.0058594 5 L 9.0253906 5 L 11.025391 3 L 4.0058594 3 z M 4.0058594 7 L 1.0058594 9 L 5.0253906 9 L 7.0253906 7 L 4.0058594 7 z M 11.025391 7 L 9.0253906 9 L 12.007812 9 L 15.007812 7 L 11.025391 7 z M 6.9804688 11 L 4.9804688 13 L 12 13 L 15 11 L 6.9804688 11 z"/>
</svg>
